data/cards/shapes/cylinder.svg

<svg width="512" height="512" viewBox="0 0 512 512" fill="none" xmlns="http://www.w3.org/2000/svg">
<path d="M111.043 154.527C89.176 263.425 103.159 376.477 150.9 476.766C155.932 487.307 163.843 496.208 173.72 502.443C183.596 508.678 195.035 511.991 206.715 512H304.3C315.98 511.991 327.419 508.677 337.295 502.443C347.171 496.208 355.082 487.306 360.113 476.766C393.083 407.846 410.145 332.399 410.039 256C410.056 221.926 406.685 187.934 399.977 154.527L252.418 123.105L111.043 154.527Z" fill="#C9AAF2"/>
<path d="M360.118 35.234C355.085 24.6937 347.173 15.792 337.297 9.55732C327.42 3.32263 315.981 0.00927665 304.3 0L206.71 0C195.031 0.00976482 183.593 3.3234 173.718 9.55811C163.842 15.7928 155.932 24.6942 150.9 35.234C132.725 73.1943 119.337 113.265 111.042 154.527H399.971C391.678 113.266 378.291 73.1945 360.118 35.234Z" fill="#C9AAF2"/>
<path d="M162.793 256C162.75 221.853 166.582 187.81 174.215 154.527H111.043C89.176 263.425 103.159 376.477 150.9 476.766C155.932 487.307 163.843 496.208 173.72 502.443C183.596 508.678 195.035 511.991 206.715 512H237.278L206.489 449.73C177.546 389.259 162.611 323.04 162.793 256Z" fill="#B28AE4"/>
<path d="M206.657 61.922C207.169 60.852 205.057 65.61 234.075 0H206.715C195.036 0.00882172 183.597 3.32201 173.72 9.55678C163.843 15.7915 155.932 24.6934 150.9 35.234C132.725 73.1943 119.337 113.265 111.042 154.527H174.214C181.588 122.559 192.469 91.5029 206.657 61.922Z" fill="#B28AE4"/>
</svg>

<svg xmlns="http://www.w3.org/2000/svg" width="512" height="512" fill="none"><path fill="#C9AAF2" d="M111.043 154.527A514.192 514.192 0 0 0 150.9 476.766 61.9 61.9 0 0 0 206.715 512H304.3a61.905 61.905 0 0 0 55.813-35.234A509.933 509.933 0 0 0 410.039 256a514.142 514.142 0 0 0-10.062-101.473l-147.559-31.422-141.375 31.422Z"/><path fill="#C9AAF2" d="M360.118 35.234A61.908 61.908 0 0 0 304.3 0h-97.59a61.896 61.896 0 0 0-55.81 35.234 508.156 508.156 0 0 0-39.858 119.293h288.929a508.162 508.162 0 0 0-39.853-119.293Z"/><path fill="#B28AE4" d="M162.793 256a451.414 451.414 0 0 1 11.422-101.473h-63.172A514.192 514.192 0 0 0 150.9 476.766 61.9 61.9 0 0 0 206.715 512h30.563l-30.789-62.27A445.932 445.932 0 0 1 162.793 256Z"/><path fill="#B28AE4" d="M206.657 61.922c.512-1.07-1.6 3.688 27.418-61.922h-27.36A61.901 61.901 0 0 0 150.9 35.234a508.156 508.156 0 0 0-39.858 119.293h63.172a445.869 445.869 0 0 1 32.443-92.605Z"/></svg>
